X: 1536
T: Oklavayım Pazıyım
C: (Anonim)
O: Turkey
F: http://compmusic.upf.edu/node/140
N: ussak--turku--bulgardarbi--oklavayim_paziyim--
N: makam= ussak
N: form= turku
N: usul= bulgardarbi = 8/8
M: 8/8
L: 1/16
K: C _2/4B   
Q: 1/4=120
%%MIDI tuningsystem comma53
A2d2 c2d2 z2c2 B2A2  | A2c2 _1/4B2c2 z2c2 _2/4B2A2  | \
w:  Ok la va yım  pa zı yım    |  Ak  ger da na  ra zı yım    | 
A2d2 c2d2 z2c2 B2A2  | 
w:  Se ni  ba na  ver se ler    | 
A2c2 _1/4B2c2 z2c2 _2/4B2A2  | A2d2 c2d2 z2c2 B2A2  | \
w:  Di len me ye  ra zı yım    |  Di  gel  kız  gel  ya nı ma    | 
A2c2 _1/4B2c2 z2c2 _2/4B2A2  | 
w:  Ka nın  kay nar  ka nı ma   | 
A16  | A2d2 c2d2 z2c2 B2A2  | A2c2 _1/4B2c2 z2c2 _2/4B2A2  | \
w:  vay    |  Ok la va yım  pa zı yım    |  Ak  ger da na  ra zı yım    | 
A2d2 c2d2 z2c2 B2A2  | 
w:  Se ni  ba na  ver se ler    | 
A2c2 _1/4B2c2 z2c2 _2/4B2A2  | A2d2 c2d2 z2c2 B2A2  | \
w:  Di len me ye  ra zı yım    |  Di  gel  kız  gel  ya nı ma    | 
A2c2 _1/4B2c2 z2c2 _2/4B2A2  | 
w:  Ka nın  kay nar  ka nı ma   | 
A16  | A2d2 c2d2 z2c2 B2A2  | A2c2 _1/4B2c2 z2c2 _2/4B2A2  | \
w:  vay    |  Ok la va yım  pa zı yım    |  Ak  ger da na  ra zı yım    | 
A2d2 c2d2 z2c2 B2A2  | 
w:  Se ni  ba na  ver se ler    | 
A2c2 _1/4B2c2 z2c2 _2/4B2A2  | A2d2 c2d2 z2c2 B2A2  | \
w:  Di len me ye  ra zı yım    |  Di  gel  kız  gel  ya nı ma    | 
A2c2 _1/4B2c2 z2c2 _2/4B2A2  | 
w:  Ka nın  kay nar  ka nı ma   | 
A16  | A2d2 c2d2 z2c2 B2A2  | A2c2 _1/4B2c2 z2c2 _2/4B2A2  | \
w:  vay    |  Ok la va yım  pa zı yım    |  Ak  ger da na  ra zı yım    | 
A2d2 c2d2 z2c2 B2A2  | 
w:  Se ni  ba na  ver se ler    | 
A2c2 _1/4B2c2 z2c2 _2/4B2A2  | A2d2 c2d2 z2c2 B2A2  | \
w:  Di len me ye  ra zı yım    |  Di  gel  kız  gel  ya nı ma    | 
A2c2 _1/4B2c2 z2c2 _2/4B2A2  | 
w:  Ka nın  kay nar  ka nı ma   | 
A16  | |


